icons/clipboard.svg

<svg width="24" height="24" viewBox="0 0 24 24" fill="none" xmlns="http://www.w3.org/2000/svg">
<path fill-rule="evenodd" clip-rule="evenodd" d="M9.00003 3C7.89546 3 7.00003 3.89543 7.00003 5H6.11538C4.92474 5 4.00407 6.02926 4.11662 7.20383C4.26413 8.74316 4.50003 11.5216 4.50003 13.5C4.50003 15.4784 4.26413 18.2568 4.11662 19.7962C4.00407 20.9707 4.92474 22 6.11538 22H17.8847C19.0753 22 19.996 20.9707 19.8834 19.7962C19.7359 18.2568 19.5 15.4784 19.5 13.5C19.5 11.5216 19.7359 8.74316 19.8834 7.20383C19.996 6.02926 19.0753 5 17.8847 5H17C17 3.89543 16.1046 3 15 3H9.00003ZM17 7C17 8.10457 16.1046 9 15 9H9.00003C7.89546 9 7.00003 8.10457 7.00003 7H6.11538L6.11382 7.00005C6.11327 7.00042 6.11227 7.00118 6.11105 7.00253C6.10902 7.00478 6.10803 7.00686 6.10768 7.00786L6.10743 7.00896C6.10739 7.00927 6.10726 7.01051 6.1075 7.01305C6.2548 8.55021 6.50003 11.4152 6.50003 13.5C6.50003 15.5848 6.2548 18.4498 6.1075 19.9869C6.10726 19.9895 6.10739 19.9907 6.10743 19.991L6.10768 19.9921C6.10803 19.9931 6.10902 19.9952 6.11105 19.9975C6.11227 19.9988 6.11327 19.9996 6.11382 20L6.11538 20H17.8847L17.8862 20C17.8868 19.9996 17.8878 19.9988 17.889 19.9975C17.891 19.9952 17.892 19.9931 17.8924 19.9921L17.8926 19.991C17.8927 19.9907 17.8928 19.9895 17.8926 19.9869C17.7453 18.4498 17.5 15.5848 17.5 13.5C17.5 11.4152 17.7453 8.55021 17.8926 7.01305C17.8928 7.01051 17.8927 7.00927 17.8926 7.00896L17.8924 7.00786C17.892 7.00686 17.891 7.00478 17.889 7.00253C17.8878 7.00118 17.8868 7.00042 17.8862 7.00005L17.8847 7H17ZM9.00003 5H15V7H9.00003V5Z" fill="#333333"/>
</svg>

<svg xmlns="http://www.w3.org/2000/svg" width="24" height="24" fill="none" viewBox="0 0 24 24">
  <path fill="#333" fill-rule="evenodd" d="M9 3a2 2 0 00-2 2h-.885a2.01 2.01 0 00-1.998 2.204c.147 1.54.383 4.318.383 6.296 0 1.978-.236 4.757-.383 6.296A2.01 2.01 0 006.115 22h11.77a2.01 2.01 0 001.998-2.204c-.147-1.54-.383-4.318-.383-6.296 0-1.978.236-4.757.383-6.296A2.01 2.01 0 0017.885 5H17a2 2 0 00-2-2H9zm8 4a2 2 0 01-2 2H9a2 2 0 01-2-2h-.886l-.003.003a.017.017 0 00-.003.005v.005c.147 1.537.392 4.402.392 6.487s-.245 4.95-.393 6.487a.02.02 0 000 .004v.001a.017.017 0 00.007.008h11.772l.003-.003a.02.02 0 00.003-.005v-.005c-.147-1.537-.392-4.402-.392-6.487s.245-4.95.393-6.487v-.005A.019.019 0 0017.885 7H17zM9 5h6v2H9V5z"/>
</svg>
